img/05molecuul-receptor-cel.svg

<?xml version="1.0" encoding="UTF-8"?>
<svg width="3855" height="1623" overflow="hidden" version="1.1" xml:space="preserve" xmlns="http://www.w3.org/2000/svg"><g transform="translate(-302 -728)"><rect x="358" y="785" width="3795" height="1564" fill="#fff"/><rect x="303" y="730" width="3795" height="1564" fill="#fff"/><path d="m2491 1609c0-204.9 174.16-371 389-371s389 166.1 389 371-174.16 371-389 371-389-166.1-389-371z" fill="#ffc000" fill-rule="evenodd" stroke="#c04f15" stroke-miterlimit="8" stroke-width="13.75"/><text x="2789.74" y="1653" fill="#000000" font-family="'Open Sans', 'Open Sans_MSFontService', sans-serif" font-size="128px" font-weight="700" style="text-decoration-line:none">cel</text><g fill="#156082"><path d="m2457.6 1316.2 46.74 22.25-84.89 178.34-46.74-22.25z"/><path d="m2289.6 1270 12.9-27.1 201.56 95.95-12.9 27.1z"/><path d="m2215.5 1419.7 13.11-27.53 200.98 95.66-13.11 27.54z"/><path d="m2428.9 1429.1 13.32-27.97 87.63 41.71-13.31 27.98z"/></g><path d="m1541.5 1703.8 200.9-92.87 38.78 83.88-200.9 92.87z" fill="#a02b93" stroke="#a02b93" stroke-miterlimit="8" stroke-width="6.875"/><g fill-rule="evenodd"><path d="m1616.8 1851.3c3.93 122.15-100.6 224.64-233.47 228.92-80.19 2.58-160.39 5.16-240.58 7.74-2.37-73.73-4.74-147.46-7.12-221.18-3.93-122.16 100.6-224.65 233.47-228.92 132.87-4.28 243.77 91.28 247.7 213.44z" fill="#a02b93"/><path d="m1316.7 1417.9c-0.71 122.21-109.06 220.66-241.99 219.89-80.235-0.47-160.47-0.94-240.7-1.41 0.429-73.76 0.859-147.52 1.288-221.29 0.712-122.21 109.06-220.66 242-219.88 132.93 0.77 240.12 100.47 239.41 222.69z" fill="#002060"/><path d="m1233.6 1278 177.09 5.6-104.48 143.1z" fill="#002060" stroke="#002060" stroke-miterlimit="8" stroke-width="6.875"/></g><text x="641.95001" y="2037" fill="#000000" font-family="'Open Sans', 'Open Sans_MSFontService', sans-serif" font-size="83px" font-weight="700" style="text-decoration-line:none"><tspan x="641.95001" y="2037">moleculen</tspan><tspan x="641.95001" y="2140.75">= sleutels</tspan></text><text x="2093.9299" y="1118.983" fill="#000000" font-family="'Open Sans', 'Open Sans_MSFontService', sans-serif" font-size="83px" font-weight="700" style="text-decoration-line:none">eiwitreceptor = slot</text></g></svg>

<svg width="3855" height="1623" xmlns="http://www.w3.org/2000/svg" xmlns:xlink="http://www.w3.org/1999/xlink" xml:space="preserve" overflow="hidden"><g transform="translate(-302 -728)"><g><rect x="358" y="785" width="3795" height="1564" fill="#FFFFFF" fill-opacity="1"/><rect x="303" y="730" width="3795" height="1564" fill="#FFFFFF" fill-opacity="1"/><path d="M2491 1609C2491 1404.1 2665.16 1238 2880 1238 3094.84 1238 3269 1404.1 3269 1609 3269 1813.9 3094.84 1980 2880 1980 2665.16 1980 2491 1813.9 2491 1609Z" stroke="#C04F15" stroke-width="13.75" stroke-linecap="butt" stroke-linejoin="miter" stroke-miterlimit="8" stroke-opacity="1" fill="#FFC000" fill-rule="evenodd" fill-opacity="1"/><text fill="#000000" fill-opacity="1" font-family="Open Sans,Open Sans_MSFontService,sans-serif" font-style="normal" font-variant="normal" font-weight="700" font-stretch="normal" font-size="128" text-anchor="start" direction="ltr" writing-mode="lr-tb" unicode-bidi="normal" text-decoration="none" transform="matrix(1 0 0 1 2789.74 1653)">cel</text><path d="M2457.58 1316.19 2504.32 1338.44 2419.43 1516.78 2372.69 1494.53Z" fill="#156082" fill-rule="nonzero" fill-opacity="1"/><path d="M2289.65 1270.03 2302.55 1242.93 2504.11 1338.88 2491.21 1365.98Z" fill="#156082" fill-rule="nonzero" fill-opacity="1"/><path d="M2215.53 1419.72 2228.64 1392.19 2429.62 1487.85 2416.51 1515.39Z" fill="#156082" fill-rule="nonzero" fill-opacity="1"/><path d="M2428.93 1429.08 2442.25 1401.11 2529.88 1442.82 2516.57 1470.8Z" fill="#156082" fill-rule="nonzero" fill-opacity="1"/><path d="M1541.5 1703.8 1742.4 1610.93 1781.18 1694.81 1580.28 1787.68Z" stroke="#A02B93" stroke-width="6.875" stroke-linecap="butt" stroke-linejoin="miter" stroke-miterlimit="8" stroke-opacity="1" fill="#A02B93" fill-rule="nonzero" fill-opacity="1"/><path d="M1616.78 1851.27C1620.71 1973.42 1516.18 2075.91 1383.31 2080.19 1303.12 2082.77 1222.92 2085.35 1142.73 2087.93 1140.36 2014.2 1137.99 1940.47 1135.61 1866.75 1131.68 1744.59 1236.21 1642.1 1369.08 1637.83 1501.95 1633.55 1612.85 1729.11 1616.78 1851.27Z" fill="#A02B93" fill-rule="evenodd" fill-opacity="1"/><path d="M1316.7 1417.89C1315.99 1540.1 1207.64 1638.55 1074.71 1637.78 994.475 1637.31 914.241 1636.84 834.007 1636.37 834.436 1562.61 834.866 1488.85 835.295 1415.08 836.007 1292.87 944.35 1194.42 1077.29 1195.2 1210.22 1195.97 1317.41 1295.67 1316.7 1417.89Z" fill="#002060" fill-rule="evenodd" fill-opacity="1"/><path d="M1233.6 1277.99 1410.69 1283.59 1306.21 1426.69Z" stroke="#002060" stroke-width="6.875" stroke-linecap="butt" stroke-linejoin="miter" stroke-miterlimit="8" stroke-opacity="1" fill="#002060" fill-rule="evenodd" fill-opacity="1"/><text fill="#000000" fill-opacity="1" font-family="Open Sans,Open Sans_MSFontService,sans-serif" font-style="normal" font-variant="normal" font-weight="700" font-stretch="normal" font-size="83" text-anchor="start" direction="ltr" writing-mode="lr-tb" unicode-bidi="normal" text-decoration="none" transform="matrix(1 0 0 1 641.95 2037)">moleculen</text><text fill="#000000" fill-opacity="1" font-family="Open Sans,Open Sans_MSFontService,sans-serif" font-style="normal" font-variant="normal" font-weight="700" font-stretch="normal" font-size="83" text-anchor="start" direction="ltr" writing-mode="lr-tb" unicode-bidi="normal" text-decoration="none" transform="matrix(1 0 0 1 2093.93 1174)">eiwitreceptor</text></g></g></svg>
